X:35
T: Dwyer and the Leprechaun
C: BB
R: jig
M: 6/8
Q: 1/8=320
L: 1/8
K: G
A |"G"d2 g "Em"edB |"G"GAB GED | "G"DEG "Am"Ace | "Am7"Ace "D"agf |
"G"d2 g "Em"edB | "G"GAB GED | "Am"EAA cAA | "D"dAF "G"G2 :|
B | "G"gdg "Am"aba | "G"gde "Dm7"=fdc | "F"=fdc "G"BGB | "C"cBc "D"d2 d |
"F"=fdc "G"BGG | "Dm"D=FF "G"DGG | "Am"EAA cAA |"D"dAF "G"G2 :|
